icons/midnadark/actions/24/code-class.svg

<?xml version="1.0" encoding="UTF-8" standalone="no"?>
<!-- Created with Inkscape (http://www.inkscape.org/) -->

<svg
   xmlns:dc="http://purl.org/dc/elements/1.1/"
   xmlns:cc="http://creativecommons.org/ns#"
   xmlns:rdf="http://www.w3.org/1999/02/22-rdf-syntax-ns#"
   xmlns:svg="http://www.w3.org/2000/svg"
   xmlns="http://www.w3.org/2000/svg"
   xmlns:sodipodi="http://sodipodi.sourceforge.net/DTD/sodipodi-0.dtd"
   xmlns:inkscape="http://www.inkscape.org/namespaces/inkscape"
   width="22"
   height="22"
   id="svg3869"
   version="1.1"
   inkscape:version="0.91 r13725"
   sodipodi:docname="code-class.svg">
  <defs
     id="defs3871">
    <inkscape:perspective
       sodipodi:type="inkscape:persp3d"
       inkscape:vp_x="0 : 12 : 1"
       inkscape:vp_y="0 : 1000 : 0"
       inkscape:vp_z="24 : 12 : 1"
       inkscape:persp3d-origin="12 : 8 : 1"
       id="perspective4146" />
    <inkscape:perspective
       sodipodi:type="inkscape:persp3d"
       inkscape:vp_x="0 : 12 : 1"
       inkscape:vp_y="0 : 1000 : 0"
       inkscape:vp_z="24 : 12 : 1"
       inkscape:persp3d-origin="12 : 8 : 1"
       id="perspective4090" />
  </defs>
  <sodipodi:namedview
     id="base"
     pagecolor="#ffffff"
     bordercolor="#666666"
     borderopacity="1.0"
     inkscape:pageopacity="0.0"
     inkscape:pageshadow="2"
     inkscape:zoom="11.313708"
     inkscape:cx="-20.87705"
     inkscape:cy="13.468104"
     inkscape:document-units="px"
     inkscape:current-layer="layer1"
     showgrid="true"
     fit-margin-top="0"
     fit-margin-left="0"
     fit-margin-right="0"
     fit-margin-bottom="0"
     inkscape:window-width="1366"
     inkscape:window-height="633"
     inkscape:window-x="0"
     inkscape:window-y="33"
     inkscape:window-maximized="1"
     inkscape:showpageshadow="false"
     inkscape:object-nodes="true"
     inkscape:snap-bbox="true"
     showguides="false">
    <inkscape:grid
       type="xygrid"
       id="grid4132" />
    <sodipodi:guide
       position="4,18"
       orientation="18,0"
       id="guide4138" />
    <sodipodi:guide
       position="5,3"
       orientation="0,18"
       id="guide4140" />
    <sodipodi:guide
       position="20,2.0000174"
       orientation="-18,0"
       id="guide4142" />
    <sodipodi:guide
       position="2,21"
       orientation="0,-18"
       id="guide4144" />
    <sodipodi:guide
       position="3,19.000017"
       orientation="16,0"
       id="guide4146" />
    <sodipodi:guide
       position="2,4"
       orientation="0,16"
       id="guide4148" />
    <sodipodi:guide
       position="21,20"
       orientation="-16,0"
       id="guide4150" />
    <sodipodi:guide
       position="2,20"
       orientation="0,-16"
       id="guide4152" />
  </sodipodi:namedview>
  <metadata
     id="metadata3874">
    <rdf:RDF>
      <cc:Work
         rdf:about="">
        <dc:format>image/svg+xml</dc:format>
        <dc:type
           rdf:resource="http://purl.org/dc/dcmitype/StillImage" />
        <dc:title />
      </cc:Work>
    </rdf:RDF>
  </metadata>
  <g
     inkscape:label="Capa 1"
     inkscape:groupmode="layer"
     id="layer1"
     transform="translate(-326,-534.3622)">
    <g
       transform="translate(-52.85712,-5.71427)"
       id="layer1-7"
       inkscape:label="Capa 1"
       style="fill:#ffffff;fill-opacity:1">
      <path
         id="rect4108"
         transform="translate(378.85714,540.07647)"
         d="M 4,4.0156241 4,7.9765618 C 4,8 3.9914085,9 5.0156253,9 L 6,9 6,13 4.0468752,13 C 4.0468752,13 3,12.977076 3,14.015625 l 0,3.9375 C 3,18 2.9770767,19 4.0156252,19 l 4.0000002,0 C 8.0156254,19 9,18.984052 9,17.984375 L 9,14 C 9,14 8.99397,13 7.9843754,13 L 7,13 7,9 10.984376,9 C 11,9 12,9.0085616 12,7.9921868 L 12,7 l 4,0 0,7 -0.999999,0 C 15,14 14,14.00603 14,15.015625 l 0,2.96875 C 14,18 13.991438,19 15.007813,19 l 3.007813,0 C 18.015626,19 19,18.998789 19,18.007812 l 0,-3.023437 C 19,15 18.99391,14 18.000001,14 L 17,14 17,7 C 17,7 17.0037,6 16.000001,6 L 12,6 12,3.9921866 C 12,4 11.993939,3 10.992188,3 L 5.0078128,3 C 5,3 4,3.0011232 4,4.0156241 Z"
         style="opacity:1;fill:#ffffff;fill-opacity:1;stroke:none"
         inkscape:connector-curvature="0"
         sodipodi:nodetypes="cccccccccccccccccccccccccccccccccccc" />
    </g>
  </g>
</svg>

<svg xmlns="http://www.w3.org/2000/svg" viewBox="0 0 22 22"><path transform="translate(0-.002)" d="m4 4.02v3.961c0 .023-.009 1.023 1.016 1.023h.984v4h-1.953c0 0-1.047-.023-1.047 1.016v3.938c0 .047-.023 1.047 1.016 1.047h4c0 0 .984-.016.984-1.016v-3.984c0 0-.006-1-1.016-1h-.984v-4h3.984c.016 0 1.016.009 1.016-1.01v-.992h4v7h-1c0 0-1 .006-1 1.016v2.969c0 .016-.009 1.016 1.01 1.016h3.01c0 0 .984-.0001.984-.992v-3.02c0 .016-.006-.984-1-.984h-1v-7c0 0 .004-1-1-1h-4v-2.01c0 .008-.006-.992-1.01-.992h-5.984c-.008 0-1.01.0001-1.01 1.016" fill="#fff"/></svg>
